static/assets/img/icons/theme/electric/socket-eu.svg

<svg height="24" viewBox="0 0 24 24" width="24" xmlns="http://www.w3.org/2000/svg"><g fill="none" fill-rule="evenodd"><path d="m0 0h24v24h-24z" opacity="0"/><path d="m11 3.05492878v1.94507122c0 .55228475.4477153 1 1 1s1-.44771525 1-1v-1.94507122c4.4999505.49744429 8 4.31251757 8 8.94507122 0 4.6325537-3.5000495 8.4476269-8 8.9450712v-1.9450712c0-.5522847-.4477153-1-1-1s-1 .4477153-1 1v1.9450712c-4.49995046-.4974443-8-4.3125175-8-8.9450712 0-4.63255365 3.50004954-8.44762693 8-8.94507122zm-2.5 9.94507122c.82842712 0 1.5-.6715729 1.5-1.5s-.67157288-1.5-1.5-1.5-1.5.6715729-1.5 1.5.67157288 1.5 1.5 1.5zm7 0c.8284271 0 1.5-.6715729 1.5-1.5s-.6715729-1.5-1.5-1.5-1.5.6715729-1.5 1.5.6715729 1.5 1.5 1.5z" fill="#000"/></g></svg>

<svg width="24px" height="24px" viewBox="0 0 24 24" version="1.1" xmlns="http://www.w3.org/2000/svg" xmlns:xlink="http://www.w3.org/1999/xlink">
    <title>Icon For Socket-eu</title>
    <g stroke="none" stroke-width="1" fill="none" fill-rule="evenodd">
        <rect opacity="0" x="0" y="0" width="24" height="24"></rect>
        <path d="M11,3.05492878 L11,5 C11,5.55228475 11.4477153,6 12,6 C12.5522847,6 13,5.55228475 13,5 L13,3.05492878 C17.4999505,3.55237307 21,7.36744635 21,12 C21,16.6325537 17.4999505,20.4476269 13,20.9450712 L13,19 C13,18.4477153 12.5522847,18 12,18 C11.4477153,18 11,18.4477153 11,19 L11,20.9450712 C6.50004954,20.4476269 3,16.6325537 3,12 C3,7.36744635 6.50004954,3.55237307 11,3.05492878 Z M8.5,13 C9.32842712,13 10,12.3284271 10,11.5 C10,10.6715729 9.32842712,10 8.5,10 C7.67157288,10 7,10.6715729 7,11.5 C7,12.3284271 7.67157288,13 8.5,13 Z M15.5,13 C16.3284271,13 17,12.3284271 17,11.5 C17,10.6715729 16.3284271,10 15.5,10 C14.6715729,10 14,10.6715729 14,11.5 C14,12.3284271 14.6715729,13 15.5,13 Z" fill="#000000"></path>
    </g>
</svg>
